cssgg/folder-add.svg

<svg
  width="24"
  height="24"
  viewBox="0 0 24 24"
  fill="none"
  xmlns="http://www.w3.org/2000/svg"
>
  <path
    d="M11 14.5V16.5H13V14.5H15V12.5H13V10.5H11V12.5H9V14.5H11Z"
    fill="currentColor"
  />
  <path
    fill-rule="evenodd"
    clip-rule="evenodd"
    d="M4 1.5C2.89543 1.5 2 2.39543 2 3.5V4.5C2 4.55666 2.00236 4.61278 2.00698 4.66825C0.838141 5.07811 0 6.19118 0 7.5V19.5C0 21.1569 1.34315 22.5 3 22.5H21C22.6569 22.5 24 21.1569 24 19.5V7.5C24 5.84315 22.6569 4.5 21 4.5H11.874C11.4299 2.77477 9.86384 1.5 8 1.5H4ZM9.73244 4.5C9.38663 3.9022 8.74028 3.5 8 3.5H4V4.5H9.73244ZM3 6.5C2.44772 6.5 2 6.94772 2 7.5V19.5C2 20.0523 2.44772 20.5 3 20.5H21C21.5523 20.5 22 20.0523 22 19.5V7.5C22 6.94772 21.5523 6.5 21 6.5H3Z"
    fill="currentColor"
  />
</svg>

<svg viewBox="0 0 24 24" xmlns="http://www.w3.org/2000/svg"><g><path d="M11 14.5v2h2v-2h2v-2h-2v-2h-2v2H9v2h2Z"/><path fill-rule="evenodd" d="M4 1.5c-1.11 0-2 .89-2 2v1c0 .05 0 .11 0 .16 -1.17.4-2.01 1.52-2.01 2.83v12c0 1.65 1.34 3 3 3h18c1.65 0 3-1.35 3-3v-12c0-1.66-1.35-3-3-3H11.86c-.45-1.73-2.02-3-3.88-3h-4Zm5.73 3c-.35-.6-1-1-1.74-1h-4v1h5.73Zm-6.74 2c-.56 0-1 .44-1 1v12c0 .55.44 1 1 1h18c.55 0 1-.45 1-1v-12c0-.56-.45-1-1-1h-18Z"/></g></svg>
